!!!OTL@@FUR: Anzuline, biele frute
!!!OTL@IT: Angiolina, bella ragazza
!!!OTL@EN: Angelina, beautiful girl,
**kern
*clefG2
*k[b-]
*M2/4
*MM100
*>[A,A]
*>A
8a
8b-
=1
8cc
8cc
8cc
8cc
=2
8dd
8cc
8a
8b-
=3
8cc
8cc
8b-
8a
=4
4g
8g
8a
=5
8b-
8cc
8b-
8a
=6
8cc
8b-
8g
8a
=7
8b-
8cc
8b-
8g
=8
4f
==:|!
*-
!!!ARE: Friuli
!!!ENC: Kelly Leistikow
!!!END: 2002/03/07
!!!ref: @{OTL@@FUR}/@{OTL@EN}
